src/apps/symbolic/org.gnome.Builder-symbolic.svg

<svg width="16" height="16" version="1.1" xmlns="http://www.w3.org/2000/svg">
 <path d="m7.5 2a1.5 1.5 0 0 0-1.5 1.5 1.5 1.5 0 0 0 0.125 0.5957l-1.5273 1.9082a2.5 2.5 0 0 0-0.097656-0.0039062 2.5 2.5 0 0 0-2.5 2.5 2.5 2.5 0 0 0 1 1.9922v2.5078h-1c-0.554 0-1 0.446-1 1v1h1v-1h5v1h1v-1c0-0.554-0.446-1-1-1h-1v-2.5078a2.5 2.5 0 0 0 1-1.9922 2.5 2.5 0 0 0-0.36914-1.3066l0.94336-2.1992a1.5 1.5 0 0 0 1.1777-0.67188l2.2695 0.42188a1.5 1.5 0 0 0 1.4785 1.2559 1.5 1.5 0 0 0 1.5-1.5 1.5 1.5 0 0 0-1.5-1.5 1.5 1.5 0 0 0-1.3008 0.76172l-2.207-0.41016a1.5 1.5 0 0 0-1.4922-1.3516zm0 1a0.5 0.5 0 0 1 0.5 0.5 0.5 0.5 0 0 1-0.5 0.5 0.5 0.5 0 0 1-0.5-0.5 0.5 0.5 0 0 1 0.5-0.5zm1.4629 0.80859a1.5 1.5 0 0 1-0.0097656 0.050781 1.5 1.5 0 0 0 0.0097656-0.050781zm3.5371 0.19141a0.5 0.5 0 0 1 0.5 0.5 0.5 0.5 0 0 1-0.5 0.5 0.5 0.5 0 0 1-0.5-0.5 0.5 0.5 0 0 1 0.5-0.5zm-1.4551 0.14844a1.5 1.5 0 0 0-0.017578 0.087891 1.5 1.5 0 0 1 0.017578-0.087891zm-0.03125 0.17773a1.5 1.5 0 0 0-0.013672 0.17383 1.5 1.5 0 0 0 0.013672 0.17969 1.5 1.5 0 0 1-0.013672-0.17969 1.5 1.5 0 0 1 0.013672-0.17383zm-4.5918 0.21094a1.5 1.5 0 0 0 0.058594 0.058594 1.5 1.5 0 0 1-0.058594-0.058594zm0.49609 0.34375a1.5 1.5 0 0 0 0.050781 0.017578 1.5 1.5 0 0 1-0.050781-0.017578zm0.25977 0.080078a1.5 1.5 0 0 0 0.056641 0.011719 1.5 1.5 0 0 1-0.056641-0.011719zm-2.6777 2.0391a1.5 1.5 0 0 1 1.5 1.5 1.5 1.5 0 0 1-1.5 1.5 1.5 1.5 0 0 1-1.5-1.5 1.5 1.5 0 0 1 1.5-1.5zm7.5 0c-0.554 0-1 0.446-1 1l-1 2 0.66602 2h0.33398v-2l1-1v2h1v-2l1 1v2h0.33398l0.66602-2-1-2c0-0.554-0.446-1-1-1h-1zm-8 3.9434a2.5 2.5 0 0 0 0.5 0.056641 2.5 2.5 0 0 0 0.4668-0.048828l0.033203 0.048828v2h-1v-2.0566z" fill="#363636"/>
</svg>

<svg xmlns="http://www.w3.org/2000/svg" width="16" height="16">
    <path fill="#050505" fill-opacity=".7" d="M7.5 2A1.5 1.5 0 0 0 6 3.5a1.5 1.5 0 0 0 .125.596L4.598 6.004A2.5 2.5 0 0 0 4.5 6 2.5 2.5 0 0 0 2 8.5a2.5 2.5 0 0 0 1 1.992V13H2c-.554 0-1 .446-1 1v1h1v-1h5v1h1v-1c0-.554-.446-1-1-1H6v-2.508A2.5 2.5 0 0 0 7 8.5a2.5 2.5 0 0 0-.37-1.307l.944-2.199a1.5 1.5 0 0 0 1.178-.672l2.27.422A1.5 1.5 0 0 0 12.5 6 1.5 1.5 0 0 0 14 4.5 1.5 1.5 0 0 0 12.5 3a1.5 1.5 0 0 0-1.3.762l-2.208-.41A1.5 1.5 0 0 0 7.5 2zm0 1a.5.5 0 0 1 .5.5.5.5 0 0 1-.5.5.5.5 0 0 1-.5-.5.5.5 0 0 1 .5-.5zm1.463.809a1.5 1.5 0 0 1-.01.05 1.5 1.5 0 0 0 .01-.05zM12.5 4a.5.5 0 0 1 .5.5.5.5 0 0 1-.5.5.5.5 0 0 1-.5-.5.5.5 0 0 1 .5-.5zm-1.455.148a1.5 1.5 0 0 0-.018.088 1.5 1.5 0 0 1 .018-.088zm-.031.178A1.5 1.5 0 0 0 11 4.5a1.5 1.5 0 0 0 .014.18A1.5 1.5 0 0 1 11 4.5a1.5 1.5 0 0 1 .014-.174zm-4.592.211a1.5 1.5 0 0 0 .058.059 1.5 1.5 0 0 1-.058-.059zm.496.344a1.5 1.5 0 0 0 .05.017 1.5 1.5 0 0 1-.05-.017zm.26.08a1.5 1.5 0 0 0 .056.012 1.5 1.5 0 0 1-.056-.012zM4.5 7A1.5 1.5 0 0 1 6 8.5 1.5 1.5 0 0 1 4.5 10 1.5 1.5 0 0 1 3 8.5 1.5 1.5 0 0 1 4.5 7zM12 7c-.554 0-1 .446-1 1l-1 2 .666 2H11v-2l1-1v2h1V9l1 1v2h.334L15 10l-1-2c0-.554-.446-1-1-1h-1zm-8 3.943a2.5 2.5 0 0 0 .5.057 2.5 2.5 0 0 0 .467-.049l.033.05v2H4v-2.058z"/>
</svg>
